X: 23
T:Pwt ar y Bys
M:2/2
L:1/8
Q:200
C:Trad
S:Blodau'r Grug Collection Vol. 1
R:Hornpipe
A:Wales
N:The Welsh version of Buttered Peas - but the  title translates as 'Lift
N:the Latch'
Z:brian_martin12345@yahoo.com
K:D
F2A2A2F2|G2B2B2G2|F2A2A2F2|G2E2E4|F2A2A2F2|G2B2B2G2|F2A2EFGE|F2D2D4:||!
D2F2A2d2|dcBcd2B2|A2F2F2D2|G2E2E4|D2F2A2d2|dcBcd2B2|A2F2G2E2|F2D2D4:||

